dist/images/shield.svg

<svg width="50" height="45" viewBox="0 0 50 45" fill="none" xmlns="http://www.w3.org/2000/svg">
<g clip-path="url(#clip0_49_102)">
<path d="M46.239 12.2087L46.2375 12.1736C46.2158 11.7414 46.2013 11.2841 46.1925 10.7753C46.1517 8.29411 43.9602 6.24173 41.2029 6.10303C35.4542 5.81429 31.007 4.12721 27.2072 0.793899L27.1748 0.76609C25.9354 -0.256665 24.0658 -0.256665 22.826 0.76609L22.7936 0.793899C18.9938 4.12721 14.5466 5.81429 8.7979 6.10337C6.04102 6.24173 3.8491 8.29411 3.80829 10.7756C3.79989 11.281 3.78502 11.7383 3.76327 12.1736L3.76098 12.255C3.64921 17.5308 3.51036 24.0969 5.951 30.0566C7.293 33.3339 9.32547 36.1828 11.9916 38.5246C15.028 41.1915 19.0052 43.3088 23.8125 44.8174C23.9689 44.8665 24.1314 44.9063 24.297 44.9362C24.5304 44.978 24.7654 44.999 25.0004 44.999C25.2354 44.999 25.4707 44.978 25.7038 44.9362C25.8694 44.9063 26.033 44.8661 26.1902 44.8167C30.9917 43.3054 34.9647 41.1871 37.9986 38.5205C40.6635 36.178 42.696 33.3284 44.0391 30.0504C46.4889 24.0728 46.3504 17.4944 46.239 12.2087ZM41.2864 29.1368C38.7123 35.4182 33.4576 39.7321 25.222 42.3242C25.1927 42.3331 25.1614 42.341 25.129 42.3468C25.0439 42.3619 24.9573 42.3619 24.8711 42.3465C24.839 42.3406 24.8078 42.3331 24.7788 42.3242C16.5345 39.7369 11.2763 35.4255 8.70405 29.1437C6.45453 23.6502 6.58194 17.6228 6.69448 12.3055L6.69524 12.276C6.71813 11.819 6.73339 11.3404 6.74178 10.8144C6.76009 9.71271 7.73512 8.80119 8.96155 8.73974C12.2147 8.57632 15.0727 8.01052 17.6987 7.01008C20.3213 6.01102 22.6505 4.60271 24.8188 2.70483C24.9291 2.62106 25.0721 2.62071 25.182 2.70483C27.3506 4.60271 29.6799 6.01102 32.3021 7.01008C34.9281 8.01052 37.7861 8.57632 41.0396 8.73974C42.2661 8.80119 43.2411 9.71271 43.259 10.8148C43.2678 11.3435 43.283 11.8221 43.3059 12.276C43.4181 17.5995 43.5424 23.6317 41.2864 29.1368Z" fill="white"/>
<path d="M24.9997 11.2861C18.1286 11.2861 12.539 16.3171 12.539 22.5007C12.539 28.6846 18.1286 33.7157 24.9997 33.7157C31.8703 33.7157 37.4604 28.6846 37.4604 22.5007C37.4604 16.3171 31.8703 11.2861 24.9997 11.2861ZM24.9997 31.0749C19.7465 31.0749 15.4729 27.2286 15.4729 22.5007C15.4729 17.7728 19.7465 13.9266 24.9997 13.9266C30.2525 13.9266 34.5261 17.7728 34.5261 22.5007C34.5261 27.2286 30.2525 31.0749 24.9997 31.0749Z" fill="white"/>
<path d="M28.5809 19.019L22.7933 24.2279L21.2224 22.8141C20.6494 22.2984 19.7205 22.2984 19.1476 22.8141C18.575 23.3298 18.575 24.1658 19.1476 24.6811L21.7561 27.0287C22.0426 27.2866 22.4179 27.4153 22.7933 27.4153C23.1687 27.4153 23.544 27.2866 23.8305 27.0287L30.6558 20.886C31.2283 20.3703 31.2283 19.5344 30.6558 19.019C30.0828 18.503 29.1539 18.503 28.5809 19.019Z" fill="white"/>
</g>
<defs>
<clipPath id="clip0_49_102">
<rect width="50" height="45" fill="white"/>
</clipPath>
</defs>
</svg>

<svg width="50" height="45" fill="none" xmlns="http://www.w3.org/2000/svg"><g clip-path="url(#a)" fill="#fff"><path d="m46.239 12.209-.002-.035c-.021-.433-.036-.89-.044-1.399-.041-2.48-2.233-4.533-4.99-4.672-5.749-.289-10.196-1.976-13.996-5.31l-.032-.027c-1.24-1.023-3.11-1.023-4.349 0l-.032.028c-3.8 3.333-8.247 5.02-13.996 5.31-2.757.138-4.949 2.19-4.99 4.672a41.75 41.75 0 0 1-.045 1.398l-.002.081c-.112 5.276-.25 11.842 2.19 17.802a22.55 22.55 0 0 0 6.04 8.468c3.037 2.666 7.014 4.784 11.822 6.292a3.984 3.984 0 0 0 2.377 0c4.802-1.512 8.775-3.63 11.809-6.297a22.582 22.582 0 0 0 6.04-8.47c2.45-5.977 2.311-12.556 2.2-17.841Zm-4.953 16.928c-2.574 6.281-7.828 10.595-16.064 13.187a.733.733 0 0 1-.443 0c-8.244-2.587-13.503-6.898-16.075-13.18-2.25-5.494-2.122-11.521-2.01-16.838l.001-.03c.023-.457.038-.936.047-1.462.018-1.101.993-2.013 2.22-2.074 3.253-.164 6.11-.73 8.737-1.73 2.622-.999 4.951-2.407 7.12-4.305a.293.293 0 0 1 .363 0c2.169 1.898 4.498 3.306 7.12 4.305 2.626 1 5.484 1.566 8.738 1.73 1.226.061 2.201.973 2.219 2.075.009.529.024 1.007.047 1.461.112 5.323.236 11.356-2.02 16.86Z"/><path d="M25 11.286c-6.871 0-12.461 5.031-12.461 11.215s5.59 11.215 12.46 11.215c6.871 0 12.461-5.031 12.461-11.215S31.87 11.286 25 11.286Zm0 19.789c-5.253 0-9.527-3.846-9.527-8.574s4.274-8.574 9.527-8.574c5.253 0 9.526 3.846 9.526 8.574S30.252 31.075 25 31.075Z"/><path d="m28.58 19.019-5.787 5.209-1.57-1.414a1.585 1.585 0 0 0-2.075 0 1.23 1.23 0 0 0 0 1.867l2.608 2.348c.287.258.662.386 1.037.386a1.55 1.55 0 0 0 1.038-.386l6.825-6.143a1.23 1.23 0 0 0 0-1.867 1.584 1.584 0 0 0-2.075 0Z"/></g><defs><clipPath id="a"><path fill="#fff" d="M0 0h50v45H0z"/></clipPath></defs></svg>
